src/pos-icons/play-pause.svg

<svg height="24" viewBox="0 0 24 24" width="24" xmlns="http://www.w3.org/2000/svg"><path d="m3 5v14l8-7m2 7h3v-14h-3m5 0v14h3v-14"/></svg>

<?xml version="1.0" encoding="UTF-8"?><!DOCTYPE svg PUBLIC "-//W3C//DTD SVG 1.1//EN" "http://www.w3.org/Graphics/SVG/1.1/DTD/svg11.dtd"><svg xmlns="http://www.w3.org/2000/svg" xmlns:xlink="http://www.w3.org/1999/xlink" version="1.1" id="mdi-play-pause" width="24" height="24" viewBox="0 0 24 24"><path d="M3,5V19L11,12M13,19H16V5H13M18,5V19H21V5" /></svg>
